symbolic/32x32/apps/AppImageLauncher.svg

<svg xmlns="http://www.w3.org/2000/svg" width="32" height="32" version="1.1">
 <circle style="opacity:0.2" cx="16" cy="17" r="14"/>
 <circle style="fill:#1b627c" cx="16" cy="16" r="14"/>
 <path style="opacity:0.2" d="M 16,7.3750422 7.4062608,21.812525 14.924635,17.571281 16,16.965064 Z m 0,0 L 24.593738,21.812525 17.075364,17.571281 16,16.965064 Z"/>
 <path style="opacity:0.2" d="M 16,6 A 11.000008,11.000014 0 0 0 5.0000005,17 11.000008,11.000014 0 0 0 16,28 11.000008,11.000014 0 0 0 27,17 11.000008,11.000014 0 0 0 16,6 Z m 0,1.3749999 A 9.6250052,9.6250107 0 0 1 25.625,17 9.6250052,9.6250107 0 0 1 16,26.625 9.6250052,9.6250107 0 0 1 6.3750005,17 9.6250052,9.6250107 0 0 1 16,7.3749999 Z"/>
 <path style="fill:#ffffff" d="M 16,5 A 11.000008,11.000014 0 0 0 5.0000005,16 11.000008,11.000014 0 0 0 16,27 11.000008,11.000014 0 0 0 27,16 11.000008,11.000014 0 0 0 16,5 Z m 0,1.3749999 A 9.6250052,9.6250107 0 0 1 25.625,16 9.6250052,9.6250107 0 0 1 16,25.625 9.6250052,9.6250107 0 0 1 6.3750005,16 9.6250052,9.6250107 0 0 1 16,6.3749999 Z"/>
 <path style="fill:#ffffff" d="M 16,6.3750422 7.4062608,20.812525 14.924635,16.571281 16,15.965064 Z m 0,0 L 24.593738,20.812525 17.075364,16.571281 16,15.965064 Z"/>
 <path style="fill:#ffffff;opacity:0.1" d="M 16 2 A 14 14 0 0 0 2 16 A 14 14 0 0 0 2.0214844 16.585938 A 14 14 0 0 1 16 3 A 14 14 0 0 1 29.978516 16.414062 A 14 14 0 0 0 30 16 A 14 14 0 0 0 16 2 z"/>
</svg>

<svg xmlns="http://www.w3.org/2000/svg" width="32" height="32"><circle style="opacity:.2" cx="16" cy="17" r="14"/><circle style="fill:#1b627c" cx="16" cy="16" r="14"/><path style="opacity:.2" d="M16 7.375 7.406 21.813l7.519-4.242L16 16.965zm0 0 8.594 14.438-7.519-4.242L16 16.965z"/><path style="opacity:.2" d="M16 6A11 11 0 0 0 5 17a11 11 0 0 0 11 11 11 11 0 0 0 11-11A11 11 0 0 0 16 6zm0 1.375A9.625 9.625 0 0 1 25.625 17 9.625 9.625 0 0 1 16 26.625 9.625 9.625 0 0 1 6.375 17 9.625 9.625 0 0 1 16 7.375z"/><path style="fill:#fff" d="M16 5A11 11 0 0 0 5 16a11 11 0 0 0 11 11 11 11 0 0 0 11-11A11 11 0 0 0 16 5zm0 1.375A9.625 9.625 0 0 1 25.625 16 9.625 9.625 0 0 1 16 25.625 9.625 9.625 0 0 1 6.375 16 9.625 9.625 0 0 1 16 6.375z"/><path style="fill:#fff" d="M16 6.375 7.406 20.813l7.519-4.242L16 15.965zm0 0 8.594 14.438-7.519-4.242L16 15.965z"/><path style="fill:#fff;opacity:.1" d="M16 2A14 14 0 0 0 2 16a14 14 0 0 0 .021.586A14 14 0 0 1 16 3a14 14 0 0 1 13.979 13.414A14 14 0 0 0 30 16 14 14 0 0 0 16 2z"/></svg>
